X:1
T:Title
%%score { 1 | 2 }
L:1/8
M:4/4
K:G
V:1 treble nm="Grand Piano"
V:2 treble 
V:1
 z4 z2[Q:1/4=94] GA | B_B=Be d2 B2 | [EA]2 E2 E2 ^DE | DEFE D2 [Ec]2 | [DB]6 GA | B_B=Be d2 B2 | %6
 [EA]2 E2 E2 ^DE | DEFE D2 A2 |[M:3/4] [B,G]6 |[M:1/4] B_B |[M:4/4] A^GAB c2 D2 |[M:3/4] [DB]6 | %12
[M:1/4] [^C_B][D=B] |[M:4/4] [E^c][DB][Ec][DB] [^CA]2 [CE]2 | A6 Bc |[M:3/4] dd dc B2 |[M:1/4] AG | %17
[M:4/4] [EA][EA][Ec][EB] [EA]2 [EG]E | DG[GB][Gd] [GB]2 [FA]2 |[M:3/4] [DG]6 |] %20
V:2
 z4 z2 [G,B,][G,CG] | [G,DG][G,^CG][G,DG][G,=CG] [G,B,G]2 [G,DG]2 | %2
 [C,C]2 [C,G,C]2 [C,G,C]2 [C,F,C][C,G,C] | [D,F,C][D,G,C][D,A,C][D,F,C] [D,F,C]2 [D,F,]2 | %4
 [G,,G,]6 [G,B,][K:treble][G,CG] | [G,DG][G,^CG][G,^DG][G,CG] [G,B,G]2 [G,DG]2 | %6
 [C,C]2 [C,G,C]2 [C,G,C]2 [C,F,C][C,G,C] | [D,F,C][D,G,C][D,A,C][D,G,C] [D,F,C]2 [D,F,C]2 | %8
[M:3/4] [G,,G,]6 |[M:1/4] [G,D][G,^C] |[M:4/4] [D,F,C][D,=F,B,][D,^F,C][D,G,D] [D,F,D]2 [D,F,C]2 | %11
[M:3/4] [G,,G,]6 |[M:1/4] [G,,G,][G,,G,] |[M:4/4] [A,,G,][A,,G,][A,,G,][A,,G,] [A,,G,]2 [A,,G,]2 | %14
 [D,F,C]6[K:treble] [G,DG][A,DG] |[M:3/4] [B,DG][B,DG] [B,DG][A,DF] [G,DG]2 | %16
[M:1/4][K:bass] [G,CD][G,B,D] |[M:4/4] [C,C][C,A,][A,,A,][B,,^G,] [C,A,]2 [^C,_B,][C,B,] | %18
 [D,B,][D,B,D][D,D][D,B,] [D,D]2 [D,C]2 |[M:3/4] [G,B,]6 |] %20

